X: 18
T: The Double Rise
C: Phil Cunningham
M: 6/8
L: 1/8
K: Bm
|: eAA gfe | faf def | gBB d2e | GdG BAA | eAA gfe | faf def | gBB ded | BAG A2B :|
|: c2A cde | f2d fga | gBB ded | GdG BAA | c2A cde | f2d fga | gBB ded | BAG A2B :|
|: AAA eAa | AaA fAa | gBB ded | GdG BAA | AAA eAa | AaA fdb | gBB ded | BAG A2B :|
|: cBA ecA | fdA aAa | gBB ded | GdG BAA | cBA ecA | fdA aAa | gBB ded | BAG A2B :|

%%sep 2 1 500

